pk/light-member.svg

<svg viewBox="0 0 48 48" fill="none" xmlns="http://www.w3.org/2000/svg" height="1em" width="1em">
  <path d="M35.0563 15.0002L18.4627 7.66508C17.5887 7.27875 16.5635 7.56461 16.0156 8.34745L11.3589 15.0002" stroke="black" stroke-width="4" stroke-linecap="round"/>
  <path d="M43 15H5C4.44772 15 4 15.4477 4 16V40C4 40.5523 4.44772 41 5 41H43C43.5523 41 44 40.5523 44 40V16C44 15.4477 43.5523 15 43 15Z" fill="#2F88FF" stroke="black" stroke-width="4"/>
  <path d="M19 23L24.1026 33L29 23" stroke="white" stroke-width="4" stroke-linecap="round" stroke-linejoin="round"/>
</svg>

<svg viewBox="0 0 48 48" fill="none" xmlns="http://www.w3.org/2000/svg" height="1em" width="1em">
  <path d="M35.056 15 18.463 7.665a2 2 0 0 0-2.447.682L11.359 15" stroke="#000" stroke-width="4" stroke-linecap="round"/>
  <path d="M43 15H5a1 1 0 0 0-1 1v24a1 1 0 0 0 1 1h38a1 1 0 0 0 1-1V16a1 1 0 0 0-1-1Z" fill="#2F88FF" stroke="#000" stroke-width="4"/>
  <path d="m19 23 5.103 10L29 23" stroke="#fff" stroke-width="4" stroke-linecap="round" stroke-linejoin="round"/>
</svg>
